X:1
T:Polska
T:efter Alfred Petersson, Nttraby, Blekinge (SvL, Band 18, nr 293)
O:Nttraby, Blekinge
S:Svenska Ltar
N:Svenska Ltar, Band 18 nr 293
R:Polska
C:Alfred Petersson
M:3/4
L:1/16
Q:1/4=80
Z:Konverterad till abc-format av  Olle Paulsson 05-01-03
K:D
A2A2 d2de f2fg|a2af (gf).g.b a2a2|(ba)gf (ag)fe (gf)ed|(dc)df (dc)(dB) A2A2|
A2A2 d2de f2fg|a2af (gf).g.b a2a2|(ba)gf (ag)fe (gf)ed|(cd)ec (c2d2) d4:|
|:e2e2 (cA).c.e (cA).c.e| a2a2 (fd)fa (fd)fa|b2b2 (ge)gb (ge)gb|
a2a2 (ba).g.f (ag).f.e|(gf).e.d (cd).e.f (gf).g.a|(bg)ec (c2d2) d4:|
